material/.icons/material/note-plus.svg

<?xml version="1.0" encoding="UTF-8"?><!DOCTYPE svg PUBLIC "-//W3C//DTD SVG 1.1//EN" "http://www.w3.org/Graphics/SVG/1.1/DTD/svg11.dtd"><svg xmlns="http://www.w3.org/2000/svg" xmlns:xlink="http://www.w3.org/1999/xlink" version="1.1" id="mdi-note-plus" width="24" height="24" viewBox="0 0 24 24"><path d="M14,10H19.5L14,4.5V10M5,3H15L21,9V19A2,2 0 0,1 19,21H5C3.89,21 3,20.1 3,19V5C3,3.89 3.89,3 5,3M9,18H11V15H14V13H11V10H9V13H6V15H9V18Z" /></svg>

<svg xmlns="http://www.w3.org/2000/svg" viewBox="0 0 24 24"><path d="M14 10h5.5L14 4.5V10M5 3h10l6 6v10a2 2 0 01-2 2H5a2 2 0 01-2-2V5c0-1.11.89-2 2-2m4 15h2v-3h3v-2h-3v-3H9v3H6v2h3v3z"/></svg>
